apps/www/public/images/logos/publicity/udio.svg

<svg width="86" height="60" viewBox="0 0 86 60" fill="none" xmlns="http://www.w3.org/2000/svg">
<path d="M41.4358 24.3923C40.303 23.5061 38.7585 22.9977 37.0774 22.9977C32.3433 22.9977 28.9453 26.6732 28.9453 31.6102C28.9453 36.5474 32.341 40.2228 37.0774 40.2228C38.7921 40.2228 40.3701 39.6431 41.5386 38.6905V39.8807H46.6848V15.1667L41.4358 16.463V24.3923ZM38.0043 35.5234C35.8418 35.5234 34.2638 33.8887 34.2638 31.6079C34.2638 29.3271 35.8418 27.6924 38.0378 27.6924C40.2337 27.6924 41.7422 29.2914 41.7422 31.6079C41.7422 33.9244 40.2337 35.5234 38.0018 35.5234H38.0043Z" fill="#7E7E7E"/>
<path d="M55.0515 22.8163L49.8025 24.1126V39.8781H55.0515V22.8163Z" fill="#7E7E7E"/>
<path d="M52.4435 15.3352C50.796 15.3352 49.5962 16.5944 49.5962 18.1958C49.5962 19.7971 50.796 21.0563 52.4435 21.0563C54.0908 21.0563 55.2571 19.7971 55.2571 18.1958C55.2571 16.5944 54.0908 15.3352 52.4435 15.3352Z" fill="#7E7E7E"/>
<path d="M66.1744 22.9619C60.959 22.9619 57.0486 26.673 57.0486 31.5745C57.0486 36.4759 60.9948 40.256 66.1744 40.256C71.354 40.256 75.3003 36.5116 75.3003 31.5745C75.3003 26.6374 71.354 22.9619 66.1744 22.9619ZM66.1744 35.5233C63.945 35.5233 62.4006 33.9243 62.4006 31.6077C62.4006 29.2913 63.945 27.6923 66.1744 27.6923C68.4038 27.6923 69.9483 29.258 69.9483 31.5722C69.9483 33.8863 68.4398 35.5208 66.1744 35.5208V35.5233Z" fill="#7E7E7E"/>
<path d="M21.9002 32.8669C21.9002 34.6038 20.94 35.6253 19.3619 35.6253H16.0693V23.3348H10.8203V30.415L16.0693 35.6253H10.8203L16.0693 40.8333V35.6253L20.6502 40.1703C24.5439 39.6643 27.1492 36.8394 27.1492 32.9025V23.3348H21.9002V32.8669Z" fill="#7E7E7E"/>
</svg>

<svg xmlns="http://www.w3.org/2000/svg" width="86" height="60" fill="none" viewBox="0 0 86 60"><path fill="#7e7e7e" d="M41.436 24.392c-1.133-.886-2.678-1.394-4.359-1.394-4.734 0-8.132 3.675-8.132 8.612s3.396 8.613 8.132 8.613c1.715 0 3.293-.58 4.462-1.532v1.19h5.146V15.167l-5.25 1.296zm-3.432 11.131c-2.162 0-3.74-1.634-3.74-3.915 0-2.28 1.578-3.916 3.774-3.916s3.704 1.6 3.704 3.916-1.508 3.915-3.74 3.915zM55.052 22.816l-5.25 1.297v15.765h5.25zM52.444 15.335c-1.648 0-2.848 1.26-2.848 2.86 0 1.602 1.2 2.861 2.848 2.861s2.813-1.259 2.813-2.86c0-1.602-1.166-2.86-2.813-2.86M66.174 22.962c-5.215 0-9.125 3.711-9.125 8.613 0 4.9 3.946 8.681 9.125 8.681s9.126-3.744 9.126-8.681c0-4.938-3.946-8.613-9.126-8.613m0 12.561c-2.229 0-3.773-1.599-3.773-3.915 0-2.317 1.544-3.916 3.773-3.916s3.774 1.566 3.774 3.88-1.508 3.949-3.774 3.949zM21.9 32.867c0 1.737-.96 2.758-2.538 2.758h-3.293v-12.29H10.82v7.08l5.25 5.21h-5.25l5.25 5.208v-5.208l4.58 4.545c3.894-.506 6.5-3.33 6.5-7.267v-9.568H21.9z"/></svg>
